!!! OTL: Berkowitz30
!!! Chapter: 1
!!! Section: I
!!! Page: 10
!!! Mode: 
!!! Encoder: DJB
**kern
*staff1
*I"Piano
=1-
*clefG2
*k[b-]
*F:
*M2/4
4f/
8g/L
8g/J
=2
4a/
4f/
=3
4g/
4a/
=4
2b-\
=5
4g/
8a/L
8a/J
=6
4b-\
4g/
=7
4a/
4b-\
=8
2cc\
=9
4dd\
4ee\
=10
4ff\
8ee\L
8ff\J
=11
4ee\
4dd\
=12
2cc\
=13
4f/
8g/L
8g/J
=14
!!linebreak:original
4a/
4f/
=15
4g/
4e/
=16
2f/
==
*-
